X:1
T:Tucson, 11.10.11.10 D
T:Tucson, 11.10.11.10 D
T:Adam Geibel
T:Public Domain Courtesy of the Cyber Hymnal™
C:Adam Geibel
Z:Public Domain
Z:Courtesy of the Cyber Hymnal™
%%score ( 1 2 ) ( 3 4 )
L:1/8
Q:1/4=98
M:4/4
K:Bb
V:1 treble 
V:2 treble 
V:3 bass 
V:4 bass 
V:1
 [DF]2 [^C=E][DF] [DB]3 [D=c] | [EB][EA][EG][EA] [DB]2 [DF]2 | [DF]2 [FB][Fc] [Fd]3 [Fd] | %3
 [=Ed][Ec][EB][Ed] c4 | [DF]2 [^C=E][DF] [DB]3 [D=c] | [EB][EA][EG][EA] [DB]2 [DF]2 | %6
 [FB]2 [Fc][Fd] [Gf]3 [Ge] | [Fd][Ec][EG][EA] [DB]3 z | D2 [DG][DB] [Dd]3 [GB] | %9
 [GB][^FA][FA][FB] [FA]2 G2 | [DG]2 [^FA][FA] [GB]3 [=Fd] | [=Ed][Ec][EB][Ed] c4 | %12
 [DF]2 [^C=E][DF] [DB]3 [F=c] | [Fd][Fc][Fd][_Af] [Gf]2 [Ge]2 | [EG]2 [Gd][Gc] [FB]3 [_FB] | %15
 [EB][EA][EG][EA] [DB]4 |] %16
V:2
 x8 | x8 | x8 | x4 (F2 _E2) | x8 | x8 | x8 | x8 | D2 x6 | x6 G2 | x8 | x4 (F2 _E2) | x8 | x8 | x8 | %15
 x8 |] %16
V:3
 [B,,B,]2 [B,,B,][B,,B,] [B,,F,]3 [B,,F,] | [C,F,][C,F,][F,,F,][F,,F,] [B,,F,]2 [B,,B,]2 | %2
 [B,,B,]2 [D,B,][F,A,] B,3 [B,,B,] | [C,B,][C,B,][C,G,][C,B,] [F,A,]4 | %4
 [B,,B,]2 [B,,B,][B,,B,] [B,,F,]3 [B,,F,] | [C,F,][C,F,][F,,F,][F,,F,] [B,,F,]2 [B,,B,]2 | %6
 [D,B,]2 [F,A,]B, [E,B,]3 [E,B,] | [F,A,][F,A,][F,B,][F,C] [B,,B,]3 z | %8
 [G,B,]2 [G,B,][G,B,] [G,B,]3 [G,D] | [D,D][D,C][D,C][D,D] [G,C]2 [G,B,]2 | %10
 [G,B,]2 [D,D][D,D] [G,D]3 [G,B,] | [C,B,][C,B,][C,G,][C,B,] [F,A,]4 | %12
 [B,,B,]2 [B,,B,][B,,B,] [B,,F,]3 [F,A,] | B,[F,A,][D,B,][B,,B,] [E,B,]2 [E,B,]2 | %14
 [E,B,]2 [E,F][E,E] [F,D]3 [F,_D] | [F,C][F,C][F,C][F,C] [B,,B,]4 |] %16
V:4
 x8 | x8 | x4 B,3 x | x8 | x8 | x8 | x3 B, x4 | x8 | x8 | x8 | x8 | x8 | x8 | B, x7 | x8 | x8 |] %16

